src/assets/svg/ic_cx_24_flat_vid.svg

<svg xmlns="http://www.w3.org/2000/svg" width="24" height="24">
    <path d="M12 2.042c-4.156 0-7.721 1.931-9.516 4.73-.773 1.205-1.253 2.555-1.253 4.008 0 3.176 2.109 5.93 5.231 7.459C6.497 22.291 1.989 23 1.989 23c5.882 0 8.287-1.313 9.858-3.493.052 0 .1.013.152.013 4.354 0 8.083-2.107 9.78-5.124.621-1.104.988-2.321.988-3.615.002-4.827-4.82-8.739-10.767-8.739zm3 8v3C15 14.146 14.104 15 13 15H8c-1.104 0-2-.854-2-1.958v-4C6 7.938 6.896 7 8 7h5c1.104 0 2 .938 2 2.042v1zm4 3.266c0 .232-.377.692-.692.692H18l-2-2.333v-1.384L18 8h.308c.315 0 .692.41.692.643v4.665z" fill="#555d66"/>
</svg>

<?xml version="1.0" encoding="iso-8859-1"?>
<!-- Generator: Adobe Illustrator 16.0.4, SVG Export Plug-In . SVG Version: 6.00 Build 0)  -->
<!DOCTYPE svg PUBLIC "-//W3C//DTD SVG 1.1//EN" "http://www.w3.org/Graphics/SVG/1.1/DTD/svg11.dtd">
<svg version="1.1" id="art_layer" xmlns="http://www.w3.org/2000/svg" xmlns:xlink="http://www.w3.org/1999/xlink" x="0px" y="0px"
	 width="24px" height="24px" viewBox="0 0 24 24" style="enable-background:new 0 0 24 24;" xml:space="preserve">
<g>
	<path style="fill:#555D66;" d="M12,2.042c-4.156,0-7.721,1.931-9.516,4.73C1.711,7.977,1.231,9.327,1.231,10.78
		c0,3.176,2.109,5.93,5.231,7.459C6.497,22.291,1.989,23,1.989,23c5.882,0,8.287-1.313,9.858-3.493c0.052,0,0.1,0.013,0.152,0.013
		c4.354,0,8.083-2.107,9.78-5.124c0.621-1.104,0.988-2.321,0.988-3.615C22.769,5.954,17.947,2.042,12,2.042z M15,10.042v1v2
		C15,14.146,14.104,15,13,15h-1h-2H8c-1.104,0-2-0.854-2-1.958v-1v-1v-2C6,7.938,6.896,7,8,7h2h2h1c1.104,0,2,0.938,2,2.042V10.042z
		 M19,13.308C19,13.54,18.623,14,18.308,14H18l-2-2.333v-1.384L18,8h0.308C18.623,8,19,8.41,19,8.643V13.308z"/>
</g>
</svg>
